packages/icons/svg/Device_Desktop_24px.svg

<svg xmlns="http://www.w3.org/2000/svg" viewBox="0 0 24 24"><path d="M21 4H3a1 1 0 00-1 1v13a1 1 0 001 1h5v1H7a1 1 0 000 2h10a1 1 0 000-2h-1v-1h5a1 1 0 001-1V5a1 1 0 00-1-1zm-1 2v8H4V6zm-5 14H9v-1h6zM4 17v-2h16v2z"/></svg>

<svg xmlns="http://www.w3.org/2000/svg" viewBox="0 0 24 24"><defs></defs><g id="Calque_5" ><path  d="M21,4H3A1,1,0,0,0,2,5V18a1,1,0,0,0,1,1H8v1H7a1,1,0,0,0,0,2H17a1,1,0,0,0,0-2H16V19h5a1,1,0,0,0,1-1V5A1,1,0,0,0,21,4ZM20,6v8H4V6ZM15,20H9V19h6ZM4,17V15H20v2Z"/></g></svg>
